X:1
T:There was an Old Farmer
M:6/8
L:1/8
K:G
 D| GGG BBB| AAF D3| d3 B2 G| d3- d2 B| Bee edB| ddd G2 D| E2 B BAF|\
 AAF D3| EEE B3| AEF E2||
